X: 1
T: L\aangbacka-Jans g\aangl\aat
O: efter Jan Holmgren Rasbo
B: Svenska Folkl\aatar f\"or tv\aa fioler
Z: 2006 John Chambers <jc@trillian.mit.edu>
M: 2/4
L: 1/16
K: G
DGBd \
| "G"g4 g3g | g2B2 c2"C"e2 | "G"d4 dedB | G4 DGBd | "D7"c2{d}cB c2A2 \
|1,3 F4 DFAc | "G"e2dd d2B2 | G4 :|2,4 "D7"F2D2 E2F2 | "G"G4 G3G | G4 :|
|: z2DD \
| "G"D2[BD][BD] [B2D2][B2D2] | {c}[B2D2]A2 G2F2 | "C"E2[cE][cE] [c2E2][c2E2] | "Am"c2B2 A2G2 \
| "D7"F2[dF][dF] [d2F2][d2F2] | [d2F2]D2 E2F2 |1 "G"GFGA "(C)"BAGE | "D7"D4 :|2 "G"G4 G3G | G4 ||
|: z2GB \
| "G"d2Bd g2d2 | B4 "C"G3G | "G"B2GB d2B2 | G4 D3G \
| "D7"{B}A2D2 F2A2 | {d}c2A2 F2D2 |1 "G"G2DG B2GB | d4 :|2 "G"G4 G3G | G4 |]
